icons/expandablecategories.svg

<?xml version="1.0" encoding="UTF-8" standalone="no"?>
<!-- Created with Inkscape (http://www.inkscape.org/) -->

<svg
   xmlns:dc="http://purl.org/dc/elements/1.1/"
   xmlns:cc="http://creativecommons.org/ns#"
   xmlns:rdf="http://www.w3.org/1999/02/22-rdf-syntax-ns#"
   xmlns:svg="http://www.w3.org/2000/svg"
   xmlns="http://www.w3.org/2000/svg"
   xmlns:xlink="http://www.w3.org/1999/xlink"
   version="1.1"
   width="50"
   height="50"
   id="svg2">
  <defs
     id="defs4">
    <linearGradient
       id="linearGradient6780">
      <stop
         id="stop6782"
         style="stop-color:#ffffff;stop-opacity:1"
         offset="0" />
      <stop
         id="stop6784"
         style="stop-color:#b5b5b5;stop-opacity:1"
         offset="1" />
    </linearGradient>
    <linearGradient
       id="linearGradient6766">
      <stop
         id="stop6768"
         style="stop-color:#000000;stop-opacity:1"
         offset="0" />
      <stop
         id="stop6770"
         style="stop-color:#364e40;stop-opacity:1"
         offset="1" />
    </linearGradient>
    <linearGradient
       x1="10.220819"
       y1="10.986612"
       x2="52.553318"
       y2="50.82093"
       id="linearGradient6772"
       xlink:href="#linearGradient6766"
       gradientUnits="userSpaceOnUse" />
    <linearGradient
       x1="30.608797"
       y1="996.81781"
       x2="30.537344"
       y2="1047.1171"
       id="linearGradient6786"
       xlink:href="#linearGradient6780"
       gradientUnits="userSpaceOnUse" />
  </defs>
  <metadata
     id="metadata7">
    <rdf:RDF>
      <cc:Work
         rdf:about="">
        <dc:format>image/svg+xml</dc:format>
        <dc:type
           rdf:resource="http://purl.org/dc/dcmitype/StillImage" />
        <dc:title></dc:title>
      </cc:Work>
    </rdf:RDF>
  </metadata>
  <g
     transform="matrix(0.78125,0,0,0.78125,0,-772.15795)"
     id="layer1">
    <rect
       width="60"
       height="60"
       rx="10.702"
       ry="10.701975"
       x="2"
       y="990.36218"
       id="rect6778"
       style="fill:url(#linearGradient6786);fill-opacity:1;stroke:#000000;stroke-width:2" />
    <path
       d="M 8.96875,8.21875 8.90625,8.25 8.5625,8.3125 l 0,0.28125 C 8.514939,8.65235 8.4383974,8.67925 8.40625,8.75 8.393391,8.7783 8.353938,8.7825 8.34375,8.8125 L 8.3125,8.875 8.28125,8.9375 8.28125,9 c -0.00354,0.0376 -0.00118,0.0874 0,0.125 -6.023e-4,0.0189 -6.023e-4,0.01245 0,0.03125 5.899e-4,0.009 -8.849e-4,0.02185 0,0.03125 2.67e-4,0.0127 -8.009e-4,0.01865 0,0.03125 0,0.009 -3.012e-4,0.02185 0,0.03125 0,0.0195 -0.00128,0.0431 0,0.0625 L 8.53125,15 c 0.062304,0.9542 1.515494,0.90065 1.71875,0.09375 l 0.0625,1.65625 0.0625,0 c -0.0183,0.511 0.33989,0.9552 0.875,0.9375 0.353015,-0.012 0.582624,-0.2231 0.71875,-0.5 l 0.0625,1.3125 c 0.0135,0.2628 0.186103,0.5096 0.375,0.625 0.188897,0.1154 0.377072,0.1369 0.5625,0.125 0.185428,-0.012 0.389883,-0.07995 0.5625,-0.21875 0.165673,-0.1329 0.288491,-0.373 0.28125,-0.625 -3.04e-4,-0.01 8.09e-4,-0.02125 0,-0.03125 l -0.15625,-3.4375 17.03125,17.03125 -17.09375,17.125 0.1875,-3.53125 -0.0625,0 c 0.05868,-0.5719 -0.351495,-1.04135 -0.9375,-0.96875 l -0.15625,0 -0.125,0.125 c -0.0201,0.018 -0.04415,0.0425 -0.0625,0.0625 l 0.09375,0.09375 c -0.225434,0.1503 -0.485573,0.30535 -0.5,0.59375 C 12.030432,45.48475 11.99999,45.484 12,45.5 l -0.0625,1.46875 c -0.131088,-0.4318 -0.479573,-0.7495 -0.96875,-0.625 l -0.0625,0.03125 -0.0625,0 -0.09375,0.0625 c -0.0201,0.018 -0.04415,0.0435 -0.0625,0.0625 l 0.0625,0.0625 c -0.233015,0.1513 -0.454746,0.3297 -0.46875,0.625 l -0.0625,1.65625 c -0.06305,-0.4177 -0.3592017,-0.742 -0.8125,-0.75 l -0.09375,0 -0.0625,0.03125 -0.0625,0 C 9.147651,48.141 9.130813,48.1665 9.09375,48.1875 L 9.125,48.25 C 8.7922128,48.3785 8.5043144,48.59195 8.5,48.96875 l -0.25,5.625 0,0.03125 c -0.00312,0.048 -0.00468,0.10825 0,0.15625 l 0.03125,0 c -0.01777,0.4292 0.2171013,0.80375 0.65625,0.90625 0.082223,0.019 0.1668171,0 0.25,0 l 0,0.03125 c 0.0094,2e-4 0.021847,0 0.03125,0 0.0094,0 0.021849,2e-4 0.03125,0 0.0094,0 0.021849,2e-4 0.03125,0 0.00962,0 0.021632,3e-4 0.03125,0 L 15,55.46875 c 0.974862,-0.063 0.921059,-1.56735 0.0625,-1.71875 l 1.59375,-0.09375 0.09375,0 0,-0.03125 c 0.526192,0.037 0.955689,-0.3288 0.9375,-0.875 -0.01214,-0.3646 -0.239532,-0.58815 -0.53125,-0.71875 L 18.5,51.96875 C 19.544268,51.90175 19.450501,50.12 18.40625,50.1875 L 14.96875,50.34375 32,33.3125 49.03125,50.375 45.625,50.21875 l -0.0625,0 0,0.03125 c -0.572069,-0.059 -1.041098,0.38295 -0.96875,0.96875 l 0,0.15625 0.125,0.125 c 0.01835,0.02 0.0424,0.0445 0.0625,0.0625 l 0.0625,-0.09375 c 0.157791,0.2449 0.31042,0.5001 0.625,0.5 L 47,52.03125 c -0.454642,0.1148 -0.784235,0.496 -0.65625,1 l 0.03125,0.0625 0,0.0625 0.0625,0.09375 c 0.01835,0.02 0.0424,0.0445 0.0625,0.0625 L 46.5625,53.25 c 0.151496,0.2299 0.300745,0.45465 0.59375,0.46875 l 1.6875,0.0625 c -0.417646,0.063 -0.773041,0.3595 -0.78125,0.8125 l 0,0.09375 0.03125,0.03125 0.03125,0.09375 c 0.01654,0.039 0.04062,0.05775 0.0625,0.09375 L 48.25,54.875 c 0.137055,0.3099 0.357339,0.58945 0.71875,0.59375 L 54.625,55.75 c 0.01274,8e-4 0.0185,-3e-4 0.03125,0 0.02551,5e-4 0.03701,0 0.0625,0 0.03444,7e-4 0.05937,0 0.09375,0 l 0,-0.03125 c 0.486678,0.01 0.878899,-0.31 0.90625,-0.8125 5.79e-4,-0.019 5.79e-4,-0.0445 0,-0.0625 0.0013,-0.039 0.0038,-0.086 0,-0.125 l 0,-0.0625 L 55.6875,54.59375 55.4375,49 c -0.01261,-0.2631 -0.186083,-0.5091 -0.375,-0.625 -0.188917,-0.1159 -0.376934,-0.16795 -0.5625,-0.15625 -0.185566,0.012 -0.358318,0.08005 -0.53125,0.21875 -0.123066,0.099 -0.175293,0.28785 -0.21875,0.46875 l -0.09375,-1.5625 0,-0.125 -0.03125,0 c 0.0183,-0.5111 -0.33989,-0.9552 -0.875,-0.9375 -0.397403,0.013 -0.639396,0.2917 -0.75,0.625 L 51.9375,45.5 c -0.01178,-0.2635 -0.185823,-0.54005 -0.375,-0.65625 -0.189177,-0.1163 -0.376738,-0.1367 -0.5625,-0.125 -0.185762,0.012 -0.358102,0.08005 -0.53125,0.21875 -0.173148,0.139 -0.333745,0.39325 -0.3125,0.65625 l 0.1875,3.4375 L 33.3125,32 50.40625,14.875 50.25,18.34375 l 0,0.0625 0.03125,0 c -0.05853,0.5719 0.351603,1.04125 0.9375,0.96875 l 0.15625,0 0.125,-0.125 c 0.0201,-0.018 0.04415,-0.01125 0.0625,-0.03125 l -0.09375,-0.0625 C 51.737917,19.00285 52.000214,18.8316 52,18.5 l 0.0625,-1.53125 c 0.114669,0.4547 0.495633,0.78455 1,0.65625 l 0.125,-0.03125 0.09375,-0.0625 c 0.0201,-0.018 0.0129,-0.0435 0.03125,-0.0625 L 53.25,17.40625 c 0.229708,-0.1515 0.454635,-0.30105 0.46875,-0.59375 l 0.0625,-1.75 c 0.03366,0.452 0.334603,0.83525 0.8125,0.84375 l 0.125,0 L 54.75,15.875 54.8125,15.84375 c 0.03985,-0.016 0.08794,-0.01025 0.125,-0.03125 L 54.875,15.71875 C 55.196275,15.58565 55.495679,15.369 55.5,15 l 0.28125,-5.65625 c 0.0025,-0.0386 0.0025,-0.05515 0,-0.09375 L 55.75,9.0625 55.6875,9 l 0,-0.125 -0.125,-0.15625 C 55.54424,8.69915 55.51995,8.7053 55.5,8.6875 55.40303,8.53364 55.301206,8.38388 55.125,8.3125 l -0.03125,-0.03125 -0.03125,0 c -0.08041,-0.018 -0.168712,-0.004 -0.25,0 -0.04064,0.002 -0.08466,-0.008 -0.125,0 -0.01008,0.002 -0.0212,-0.002 -0.03125,0 L 49,8.53125 c -0.951856,0.0615 -0.894253,1.47682 -0.09375,1.6875 l -1.5625,0.09375 -0.09375,0 0,0.03125 c -0.52441,-0.0347 -0.955652,0.33005 -0.9375,0.875 0.01299,0.38993 0.269785,0.6343 0.59375,0.75 L 45.5,12.03125 c -1.032941,0.067 -0.919349,1.80895 0.09375,1.78125 0.01104,-3e-4 0.02,7e-4 0.03125,0 L 49.0625,13.625 32,30.6875 14.90625,13.5625 l 3.46875,0.15625 0.0625,0 c 0.0034,3e-4 -0.0033,-0.03225 0,-0.03125 0.570554,0.057 1.040799,-0.3529 0.96875,-0.9375 l -0.03125,-0.09375 0,-0.0625 -0.09375,-0.125 c -0.01835,-0.02 -0.0424,-0.0435 -0.0625,-0.0625 l -0.0625,0.0625 C 19.007321,12.23355 18.826625,12.0149 18.53125,12 c -0.0073,-4e-4 0.0074,-0.03125 0,-0.03125 l -0.03125,0 -1.53125,-0.0625 c 0.46108,-0.11 0.81677,-0.49169 0.6875,-1 L 17.625,10.78125 17.53125,10.6875 C 17.51289,10.6677 17.48884,10.643 17.46875,10.625 l -0.0625,0.09375 C 17.253799,10.49858 17.098382,10.26368 16.8125,10.25 l -1.71875,-0.0625 c 0.452257,-0.0335 0.804012,-0.33463 0.8125,-0.8125 l 0,-0.21875 L 15.78125,9 C 15.76289,8.9802 15.73884,8.98675 15.71875,8.96875 L 15.625,9.0625 c -0.143441,-0.24552 -0.290274,-0.512 -0.59375,-0.53125 -0.0077,-4.9e-4 0.0078,-0.03095 0,-0.03125 L 15,8.5 9.40625,8.21875 c -0.010723,-10e-4 -0.020508,9.7e-4 -0.03125,0 -0.010742,-9.7e-4 -0.020496,5.8e-4 -0.03125,0 -0.054445,-0.0122 -0.101195,0.002 -0.15625,0 -0.077077,-0.003 -0.1425274,-0.0171 -0.21875,0 z"
       transform="translate(0,988.36218)"
       id="path6693"
       style="font-size:medium;font-style:normal;font-variant:normal;font-weight:normal;font-stretch:normal;text-indent:0;text-align:start;text-decoration:none;line-height:normal;letter-spacing:normal;word-spacing:normal;text-transform:none;direction:ltr;block-progression:tb;writing-mode:lr-tb;text-anchor:start;baseline-shift:baseline;color:#000000;fill:url(#linearGradient6772);fill-opacity:1;stroke:none;stroke-width:1;marker:none;visibility:visible;display:inline;overflow:visible;enable-background:accumulate;font-family:Sans;-inkscape-font-specification:Sans" />
  </g>
</svg>

<?xml version="1.0" encoding="UTF-8" standalone="no"?>
<!-- Created with Inkscape (http://www.inkscape.org/) -->

<svg
   xmlns:dc="http://purl.org/dc/elements/1.1/"
   xmlns:cc="http://creativecommons.org/ns#"
   xmlns:rdf="http://www.w3.org/1999/02/22-rdf-syntax-ns#"
   xmlns:svg="http://www.w3.org/2000/svg"
   xmlns="http://www.w3.org/2000/svg"
   xmlns:xlink="http://www.w3.org/1999/xlink"
   xmlns:sodipodi="http://sodipodi.sourceforge.net/DTD/sodipodi-0.dtd"
   xmlns:inkscape="http://www.inkscape.org/namespaces/inkscape"
   width="64"
   height="64"
   id="svg2"
   version="1.1"
   inkscape:version="0.48.2 r9819"
   sodipodi:docname="icon.svg"
   inkscape:export-filename="C:\Users\zdoll\projects\Expandable-Categories\icon.png"
   inkscape:export-xdpi="90"
   inkscape:export-ydpi="90">
  <defs
     id="defs4">
    <linearGradient
       inkscape:collect="always"
       id="linearGradient6780">
      <stop
         style="stop-color:#ffffff;stop-opacity:1;"
         offset="0"
         id="stop6782" />
      <stop
         style="stop-color:#b5b5b5;stop-opacity:1"
         offset="1"
         id="stop6784" />
    </linearGradient>
    <linearGradient
       inkscape:collect="always"
       id="linearGradient6766">
      <stop
         style="stop-color:#000000;stop-opacity:1;"
         offset="0"
         id="stop6768" />
      <stop
         style="stop-color:#364e40;stop-opacity:1"
         offset="1"
         id="stop6770" />
    </linearGradient>
    <marker
       inkscape:stockid="RazorWire"
       id="RazorWire"
       refX="0"
       refY="0"
       orient="auto">
       style=&quot;overflow:visible&quot;&gt;
      <path
   id="path3997"
   transform="scale(0.8,0.8)"
   style="fill:#808080;fill-opacity:1;fill-rule:evenodd;stroke:#000000;stroke-width:0.1pt"
   d="M 0.022727273,-0.74009011 L 0.022727273,0.69740989 L -7.7585227,3.0099099 L 10.678977,3.0099099 L 3.4914773,0.69740989 L 3.4914773,-0.74009011 L 10.741477,-2.8963401 L -7.7272727,-2.8963401 L 0.022727273,-0.74009011 z " />
</marker>
    <marker
       inkscape:stockid="Tail"
       orient="auto"
       refY="0.0"
       refX="0.0"
       id="Tail"
       style="overflow:visible">
      <g
         id="g3800"
         transform="scale(-1.2)">
        <path
           id="path3802"
           d="M -3.8048674,-3.9585227 L 0.54352094,0"
           style="fill:none;fill-rule:evenodd;stroke:#000000;stroke-width:0.8;marker-start:none;marker-end:none;stroke-linecap:round" />
        <path
           id="path3804"
           d="M -1.2866832,-3.9585227 L 3.0617053,0"
           style="fill:none;fill-rule:evenodd;stroke:#000000;stroke-width:0.8;marker-start:none;marker-end:none;stroke-linecap:round" />
        <path
           id="path3806"
           d="M 1.3053582,-3.9585227 L 5.6537466,0"
           style="fill:none;fill-rule:evenodd;stroke:#000000;stroke-width:0.8;marker-start:none;marker-end:none;stroke-linecap:round" />
        <path
           id="path3808"
           d="M -3.8048674,4.1775838 L 0.54352094,0.21974226"
           style="fill:none;fill-rule:evenodd;stroke:#000000;stroke-width:0.8;marker-start:none;marker-end:none;stroke-linecap:round" />
        <path
           id="path3810"
           d="M -1.2866832,4.1775838 L 3.0617053,0.21974226"
           style="fill:none;fill-rule:evenodd;stroke:#000000;stroke-width:0.8;marker-start:none;marker-end:none;stroke-linecap:round" />
        <path
           id="path3812"
           d="M 1.3053582,4.1775838 L 5.6537466,0.21974226"
           style="fill:none;fill-rule:evenodd;stroke:#000000;stroke-width:0.8;marker-start:none;marker-end:none;stroke-linecap:round" />
      </g>
    </marker>
    <marker
       inkscape:stockid="Arrow1Lstart"
       orient="auto"
       refY="0.0"
       refX="0.0"
       id="Arrow1Lstart"
       style="overflow:visible">
      <path
         id="path3764"
         d="M 0.0,0.0 L 5.0,-5.0 L -12.5,0.0 L 5.0,5.0 L 0.0,0.0 z "
         style="fill-rule:evenodd;stroke:#000000;stroke-width:1.0pt;marker-start:none"
         transform="scale(0.8) translate(12.5,0)" />
    </marker>
    <marker
       inkscape:stockid="Arrow1Lend"
       orient="auto"
       refY="0.0"
       refX="0.0"
       id="Arrow1Lend"
       style="overflow:visible;">
      <path
         id="path3767"
         d="M 0.0,0.0 L 5.0,-5.0 L -12.5,0.0 L 5.0,5.0 L 0.0,0.0 z "
         style="fill-rule:evenodd;stroke:#000000;stroke-width:1.0pt;marker-start:none;"
         transform="scale(0.8) rotate(180) translate(12.5,0)" />
    </marker>
    <linearGradient
       inkscape:collect="always"
       xlink:href="#linearGradient6766"
       id="linearGradient6772"
       x1="10.220819"
       y1="10.986612"
       x2="52.553318"
       y2="50.82093"
       gradientUnits="userSpaceOnUse" />
    <linearGradient
       inkscape:collect="always"
       xlink:href="#linearGradient6780"
       id="linearGradient6786"
       x1="30.608797"
       y1="996.81781"
       x2="30.537344"
       y2="1047.1171"
       gradientUnits="userSpaceOnUse" />
  </defs>
  <sodipodi:namedview
     id="base"
     pagecolor="#ffffff"
     bordercolor="#666666"
     borderopacity="1.0"
     inkscape:pageopacity="0.0"
     inkscape:pageshadow="2"
     inkscape:zoom="2.803221"
     inkscape:cx="55.472936"
     inkscape:cy="14.30086"
     inkscape:document-units="px"
     inkscape:current-layer="layer1"
     showgrid="false"
     inkscape:showpageshadow="false"
     inkscape:snap-page="true"
     inkscape:snap-global="false"
     inkscape:window-width="902"
     inkscape:window-height="609"
     inkscape:window-x="2045"
     inkscape:window-y="125"
     inkscape:window-maximized="0" />
  <metadata
     id="metadata7">
    <rdf:RDF>
      <cc:Work
         rdf:about="">
        <dc:format>image/svg+xml</dc:format>
        <dc:type
           rdf:resource="http://purl.org/dc/dcmitype/StillImage" />
        <dc:title></dc:title>
      </cc:Work>
    </rdf:RDF>
  </metadata>
  <g
     inkscape:label="Layer 1"
     inkscape:groupmode="layer"
     id="layer1"
     transform="translate(0,-988.36218)">
    <rect
       style="fill:url(#linearGradient6786);fill-opacity:1;stroke:#000000;stroke-width:2"
       id="rect6778"
       width="60"
       height="60"
       x="2"
       y="990.36218"
       rx="10.702"
       ry="10.701975" />
    <path
       style="font-size:medium;font-style:normal;font-variant:normal;font-weight:normal;font-stretch:normal;text-indent:0;text-align:start;text-decoration:none;line-height:normal;letter-spacing:normal;word-spacing:normal;text-transform:none;direction:ltr;block-progression:tb;writing-mode:lr-tb;text-anchor:start;baseline-shift:baseline;color:#000000;fill:url(#linearGradient6772);fill-opacity:1;stroke:none;stroke-width:1;marker:none;visibility:visible;display:inline;overflow:visible;enable-background:accumulate;font-family:Sans;-inkscape-font-specification:Sans"
       d="M 8.96875 8.21875 L 8.90625 8.25 L 8.5625 8.3125 L 8.5625 8.59375 C 8.514939 8.65235 8.4383974 8.67925 8.40625 8.75 C 8.393391 8.7783 8.353938 8.7825 8.34375 8.8125 L 8.3125 8.875 L 8.28125 8.9375 L 8.28125 9 C 8.27771 9.0376 8.28007 9.0874 8.28125 9.125 C 8.2806477 9.1439 8.2806477 9.13745 8.28125 9.15625 C 8.2818399 9.16525 8.2803651 9.1781 8.28125 9.1875 C 8.281517 9.2002 8.2804491 9.20615 8.28125 9.21875 C 8.28125 9.22775 8.2809488 9.2406 8.28125 9.25 C 8.28125 9.2695 8.27997 9.2931 8.28125 9.3125 L 8.53125 15 C 8.593554 15.9542 10.046744 15.90065 10.25 15.09375 L 10.3125 16.75 L 10.375 16.75 C 10.3567 17.261 10.71489 17.7052 11.25 17.6875 C 11.603015 17.6755 11.832624 17.4644 11.96875 17.1875 L 12.03125 18.5 C 12.04475 18.7628 12.217353 19.0096 12.40625 19.125 C 12.595147 19.2404 12.783322 19.2619 12.96875 19.25 C 13.154178 19.238 13.358633 19.17005 13.53125 19.03125 C 13.696923 18.89835 13.819741 18.65825 13.8125 18.40625 C 13.812196 18.39625 13.813309 18.385 13.8125 18.375 L 13.65625 14.9375 L 30.6875 31.96875 L 13.59375 49.09375 L 13.78125 45.5625 L 13.71875 45.5625 C 13.77743 44.9906 13.367255 44.52115 12.78125 44.59375 L 12.625 44.59375 L 12.5 44.71875 C 12.4799 44.73675 12.45585 44.76125 12.4375 44.78125 L 12.53125 44.875 C 12.305816 45.0253 12.045677 45.18035 12.03125 45.46875 C 12.030432 45.48475 11.99999 45.484 12 45.5 L 11.9375 46.96875 C 11.806412 46.53695 11.457927 46.21925 10.96875 46.34375 L 10.90625 46.375 L 10.84375 46.375 L 10.75 46.4375 C 10.7299 46.4555 10.70585 46.481 10.6875 46.5 L 10.75 46.5625 C 10.516985 46.7138 10.295254 46.8922 10.28125 47.1875 L 10.21875 48.84375 C 10.1557 48.42605 9.8595483 48.10175 9.40625 48.09375 L 9.3125 48.09375 L 9.25 48.125 L 9.1875 48.125 C 9.147651 48.141 9.130813 48.1665 9.09375 48.1875 L 9.125 48.25 C 8.7922128 48.3785 8.5043144 48.59195 8.5 48.96875 L 8.25 54.59375 L 8.25 54.625 C 8.24688 54.673 8.24532 54.73325 8.25 54.78125 L 8.28125 54.78125 C 8.26348 55.21045 8.4983513 55.585 8.9375 55.6875 C 9.019723 55.7065 9.1043171 55.6875 9.1875 55.6875 L 9.1875 55.71875 C 9.1969 55.71895 9.209347 55.71875 9.21875 55.71875 C 9.22815 55.71875 9.240599 55.71895 9.25 55.71875 C 9.2594 55.71875 9.271849 55.71895 9.28125 55.71875 C 9.29087 55.71875 9.302882 55.71905 9.3125 55.71875 L 15 55.46875 C 15.974862 55.40575 15.921059 53.9014 15.0625 53.75 L 16.65625 53.65625 L 16.75 53.65625 L 16.75 53.625 C 17.276192 53.662 17.705689 53.2962 17.6875 52.75 C 17.67536 52.3854 17.447968 52.16185 17.15625 52.03125 L 18.5 51.96875 C 19.544268 51.90175 19.450501 50.12 18.40625 50.1875 L 14.96875 50.34375 L 32 33.3125 L 49.03125 50.375 L 45.625 50.21875 L 45.5625 50.21875 L 45.5625 50.25 C 44.990431 50.191 44.521402 50.63295 44.59375 51.21875 L 44.59375 51.375 L 44.71875 51.5 C 44.7371 51.52 44.76115 51.5445 44.78125 51.5625 L 44.84375 51.46875 C 45.001541 51.71365 45.15417 51.96885 45.46875 51.96875 L 47 52.03125 C 46.545358 52.14605 46.215765 52.52725 46.34375 53.03125 L 46.375 53.09375 L 46.375 53.15625 L 46.4375 53.25 C 46.45585 53.27 46.4799 53.2945 46.5 53.3125 L 46.5625 53.25 C 46.713996 53.4799 46.863245 53.70465 47.15625 53.71875 L 48.84375 53.78125 C 48.426104 53.84425 48.070709 54.14075 48.0625 54.59375 L 48.0625 54.6875 L 48.09375 54.71875 L 48.125 54.8125 C 48.14154 54.8515 48.16562 54.87025 48.1875 54.90625 L 48.25 54.875 C 48.387055 55.1849 48.607339 55.46445 48.96875 55.46875 L 54.625 55.75 C 54.63774 55.7508 54.6435 55.7497 54.65625 55.75 C 54.68176 55.7505 54.69326 55.75 54.71875 55.75 C 54.75319 55.7507 54.77812 55.75 54.8125 55.75 L 54.8125 55.71875 C 55.299178 55.72875 55.691399 55.40875 55.71875 54.90625 C 55.719329 54.88725 55.719329 54.86175 55.71875 54.84375 C 55.72005 54.80475 55.72255 54.75775 55.71875 54.71875 L 55.71875 54.65625 L 55.6875 54.59375 L 55.4375 49 C 55.42489 48.7369 55.251417 48.4909 55.0625 48.375 C 54.873583 48.2591 54.685566 48.20705 54.5 48.21875 C 54.314434 48.23075 54.141682 48.2988 53.96875 48.4375 C 53.845684 48.5365 53.793457 48.72535 53.75 48.90625 L 53.65625 47.34375 L 53.65625 47.21875 L 53.625 47.21875 C 53.6433 46.70765 53.28511 46.26355 52.75 46.28125 C 52.352597 46.29425 52.110604 46.57295 52 46.90625 L 51.9375 45.5 C 51.92572 45.2365 51.751677 44.95995 51.5625 44.84375 C 51.373323 44.72745 51.185762 44.70705 51 44.71875 C 50.814238 44.73075 50.641898 44.7988 50.46875 44.9375 C 50.295602 45.0765 50.135005 45.33075 50.15625 45.59375 L 50.34375 49.03125 L 33.3125 32 L 50.40625 14.875 L 50.25 18.34375 L 50.25 18.40625 L 50.28125 18.40625 C 50.22272 18.97815 50.632853 19.4475 51.21875 19.375 L 51.375 19.375 L 51.5 19.25 C 51.5201 19.232 51.54415 19.23875 51.5625 19.21875 L 51.46875 19.15625 C 51.737917 19.00285 52.000214 18.8316 52 18.5 L 52.0625 16.96875 C 52.177169 17.42345 52.558133 17.7533 53.0625 17.625 L 53.1875 17.59375 L 53.28125 17.53125 C 53.30135 17.51325 53.29415 17.48775 53.3125 17.46875 L 53.25 17.40625 C 53.479708 17.25475 53.704635 17.1052 53.71875 16.8125 L 53.78125 15.0625 C 53.81491 15.5145 54.115853 15.89775 54.59375 15.90625 L 54.71875 15.90625 L 54.75 15.875 L 54.8125 15.84375 C 54.85235 15.82775 54.90044 15.8335 54.9375 15.8125 L 54.875 15.71875 C 55.196275 15.58565 55.495679 15.369 55.5 15 L 55.78125 9.34375 C 55.78375 9.30515 55.78375 9.2886 55.78125 9.25 L 55.75 9.0625 L 55.6875 9 L 55.6875 8.875 L 55.5625 8.71875 C 55.54424 8.69915 55.51995 8.7053 55.5 8.6875 C 55.40303 8.53364 55.301206 8.38388 55.125 8.3125 L 55.09375 8.28125 L 55.0625 8.28125 C 54.98209 8.26325 54.893788 8.27725 54.8125 8.28125 C 54.77186 8.28325 54.72784 8.27325 54.6875 8.28125 C 54.67742 8.28325 54.6663 8.27925 54.65625 8.28125 L 49 8.53125 C 48.048144 8.59275 48.105747 10.00807 48.90625 10.21875 L 47.34375 10.3125 L 47.25 10.3125 L 47.25 10.34375 C 46.72559 10.30905 46.294348 10.6738 46.3125 11.21875 C 46.32549 11.60868 46.582285 11.85305 46.90625 11.96875 L 45.5 12.03125 C 44.467059 12.09825 44.580651 13.8402 45.59375 13.8125 C 45.60479 13.8122 45.61375 13.8132 45.625 13.8125 L 49.0625 13.625 L 32 30.6875 L 14.90625 13.5625 L 18.375 13.71875 L 18.4375 13.71875 C 18.4409 13.71905 18.4342 13.6865 18.4375 13.6875 C 19.008054 13.7445 19.478299 13.3346 19.40625 12.75 L 19.375 12.65625 L 19.375 12.59375 L 19.28125 12.46875 C 19.2629 12.44875 19.23885 12.42525 19.21875 12.40625 L 19.15625 12.46875 C 19.007321 12.23355 18.826625 12.0149 18.53125 12 C 18.52395 11.9996 18.53865 11.96875 18.53125 11.96875 L 18.5 11.96875 L 16.96875 11.90625 C 17.42983 11.79625 17.78552 11.41456 17.65625 10.90625 L 17.625 10.78125 L 17.53125 10.6875 C 17.51289 10.6677 17.48884 10.643 17.46875 10.625 L 17.40625 10.71875 C 17.253799 10.49858 17.098382 10.26368 16.8125 10.25 L 15.09375 10.1875 C 15.546007 10.154 15.897762 9.85287 15.90625 9.375 L 15.90625 9.15625 L 15.78125 9 C 15.76289 8.9802 15.73884 8.98675 15.71875 8.96875 L 15.625 9.0625 C 15.481559 8.81698 15.334726 8.5505 15.03125 8.53125 C 15.02355 8.53076 15.03905 8.5003 15.03125 8.5 L 15 8.5 L 9.40625 8.21875 C 9.395527 8.21775 9.385742 8.21972 9.375 8.21875 C 9.364258 8.21778 9.354504 8.21933 9.34375 8.21875 C 9.289305 8.20655 9.242555 8.22075 9.1875 8.21875 C 9.110423 8.21575 9.0449726 8.20165 8.96875 8.21875 z "
       transform="translate(0,988.36218)"
       id="path6693" />
  </g>
</svg>
